style-guide/assets/wds-icons-indent-right.svg

<svg xmlns="http://www.w3.org/2000/svg" xmlns:xlink="http://www.w3.org/1999/xlink" width="24" height="24" viewBox="0 0 24 24">
  <defs>
    <path id="indent-right-a" d="M1,1 C0.447,1 0,1.447 0,2 L0,22 C0,22.553 0.447,23 1,23 C1.553,23 2,22.553 2,22 L2,2 C2,1.447 1.553,1 1,1 M23.9248,11.6191 C23.8758,11.5001 23.8038,11.3891 23.7068,11.2931 L16.7068,4.2931 C16.3168,3.9021 15.6838,3.9021 15.2928,4.2931 C14.9028,4.6831 14.9028,5.3161 15.2928,5.7071 L20.5858,11.0001 L6.9998,11.0001 C6.4468,11.0001 5.9998,11.4471 5.9998,12.0001 C5.9998,12.5531 6.4468,13.0001 6.9998,13.0001 L20.5858,13.0001 L15.2928,18.2931 C14.9028,18.6831 14.9028,19.3161 15.2928,19.7071 C15.4878,19.9021 15.7438,20.0001 15.9998,20.0001 C16.2558,20.0001 16.5118,19.9021 16.7068,19.7071 L23.7068,12.7071 C23.8038,12.6111 23.8758,12.5001 23.9248,12.3811 C23.9728,12.2651 23.9998,12.1371 23.9998,12.0031 L23.9998,11.9971 C23.9998,11.8631 23.9728,11.7351 23.9248,11.6191"/>
  </defs>
  <use fill-rule="evenodd" xlink:href="#indent-right-a"/>
</svg>

<svg viewBox="0 0 24 24" xmlns="http://www.w3.org/2000/svg">
  <path d="M1 1a1 1 0 0 0-1 1v20a1 1 0 1 0 2 0V2a1 1 0 0 0-1-1m22.925 10.62a.983.983 0 0 0-.218-.327l-7-7a.999.999 0 1 0-1.414 1.414L20.586 11H7a1 1 0 1 0 0 2h13.586l-5.293 5.293a1 1 0 0 0 1.414 1.414l7-7a.983.983 0 0 0 .293-.704v-.006a.988.988 0 0 0-.075-.378"/>
</svg>
